X: 10214
Q: "Andante."
M: 6/8
L: 1/8
K: Bb
(Fd)c B2c | (BA)G F2F |\
(FD)d (fe)"^cres."c | [BB2]"^[.."FB "^Sym"dcB |\
"^..]"A2!pp!d d/e/d/c/ B/A/ | B2G/G/ _A>cd/e/ |\
ed/ D/ G/A/ B2{B}A | G"^[.."{^F}G"^Sym"{F}G "^..]"=F2!pp!F |
(Fd)c B2c | (BA)G FzF/F/ |\
(FD)B (BF)d | (de)z/d/ (cd)c |\
cdc "^..]"B2 z |]


